X: 1
T: the Spey In Spate
C: James Scott Skinner
B: BSFC Session Tune Book 2016 p.49
B: BSFC Tune Book XII-3
Z: Nigel Gatherer; small changes by John Chambers
M: 4/4
L: 1/8
K: D
A,2 | "D"D2FD A,DFA | dcBA ^GAFD | "Em"E2GE B,EGB | "A7"gecA GECA, || "D"D2FD A,DFA | dDcD BDAf |
| "G" gefd "Em"ecdB | "A7"AFGE "D"DABc |[| "D"d/d/d fd AdFA | DFAd fagf | "Em"e/e/e ge BeGB |
| "A7"CEAc egfe || "D"d/d/d fd AdFA | DFAd fagf | "G"gefd "Em"ecdB | "A7"AFGE "D"D2 |]
%%text Also as a 32-bar reel with 1st & 2nd endings.
